icons/wufoo.svg

<?xml version="1.0" encoding="UTF-8" standalone="no"?>
<svg width="256px" height="256px" viewBox="0 0 256 256" version="1.1" xmlns="http://www.w3.org/2000/svg" xmlns:xlink="http://www.w3.org/1999/xlink" preserveAspectRatio="xMidYMid">
    <g>
        <path d="M0.06,131.957001 C2.15101102,200.818222 58.6317898,256 128,256 C198.692,256 256,198.692 256,128 C256,57.308 198.692,0 128,0 C58.6317898,0 2.15101102,55.1817785 0.06,124.042999 L0.06,131.957001 L0.06,131.957001 Z" fill="#D46A59"></path>
        <path d="M227.187,128 C227.187,182.779 182.779,227.187 128,227.187 C73.22,227.187 28.813,182.779 28.813,128 C28.813,73.221 73.22,28.813 128,28.813 C182.779,28.813 227.187,73.221 227.187,128 L227.187,128 Z" fill="#D04F41"></path>
        <path id="path-1" d="M85.738,206.945 L24.35,85.206 L66.167,71.947 L98.677,144.744 L103.139,66.593 L139.474,59.58 L173.004,131.102 L176.017,52.532 L213.418,45.174 L202.709,184.266 L163.569,192.043 L129.785,122.051 L125.068,199.692 L85.738,206.945 L85.738,206.945 Z" fill="#ffffff"></path>
    </g>
</svg>

<svg xmlns="http://www.w3.org/2000/svg" viewBox="0 0 255.94 256">
  <path fill="#d46a59" d="M0 131.957C2.091 200.818 58.572 256 127.94 256c70.692 0 128-57.308 128-128 0-70.692-57.308-128-128-128C58.572 0 2.091 55.182 0 124.043z"/>
  <path fill="#d04f41" d="M227.127 128c0 54.779-44.408 99.187-99.187 99.187-54.78 0-99.187-44.408-99.187-99.187 0-54.779 44.407-99.187 99.187-99.187 54.779 0 99.187 44.408 99.187 99.187z"/>
  <path fill="#fff" d="M85.678 206.945 24.29 85.206l41.817-13.259 32.51 72.797 4.462-78.151 36.335-7.013 33.53 71.522 3.013-78.57 37.401-7.358-10.709 139.092-39.14 7.777-33.784-69.992-4.717 77.641z"/>
</svg>
